app/assets/images/heroicons/outline/table-cells.svg

<svg width="24" height="24" viewBox="0 0 24 24" fill="none" xmlns="http://www.w3.org/2000/svg">
<path d="M3.375 19.5H20.625M3.375 19.5C2.75368 19.5 2.25 18.9963 2.25 18.375M3.375 19.5H10.875C11.4963 19.5 12 18.9963 12 18.375M2.25 18.375V5.625M2.25 18.375V16.875C2.25 16.2537 2.75368 15.75 3.375 15.75M21.75 18.375V5.625M21.75 18.375C21.75 18.9963 21.2463 19.5 20.625 19.5M21.75 18.375V16.875C21.75 16.2537 21.2463 15.75 20.625 15.75M20.625 19.5H13.125C12.5037 19.5 12 18.9963 12 18.375M21.75 5.625C21.75 5.00368 21.2463 4.5 20.625 4.5H3.375C2.75368 4.5 2.25 5.00368 2.25 5.625M21.75 5.625V7.125C21.75 7.74632 21.2463 8.25 20.625 8.25M2.25 5.625V7.125C2.25 7.74632 2.75368 8.25 3.375 8.25M3.375 8.25H20.625M3.375 8.25H10.875C11.4963 8.25 12 8.75368 12 9.375M3.375 8.25C2.75368 8.25 2.25 8.75368 2.25 9.375V10.875C2.25 11.4963 2.75368 12 3.375 12M20.625 8.25H13.125C12.5037 8.25 12 8.75368 12 9.375M20.625 8.25C21.2463 8.25 21.75 8.75368 21.75 9.375V10.875C21.75 11.4963 21.2463 12 20.625 12M3.375 12H10.875M3.375 12C2.75368 12 2.25 12.5037 2.25 13.125V14.625C2.25 15.2463 2.75368 15.75 3.375 15.75M12 10.875V9.375M12 10.875C12 11.4963 11.4963 12 10.875 12M12 10.875C12 11.4963 12.5037 12 13.125 12M10.875 12C11.4963 12 12 12.5037 12 13.125M13.125 12H20.625M13.125 12C12.5037 12 12 12.5037 12 13.125M20.625 12C21.2463 12 21.75 12.5037 21.75 13.125V14.625C21.75 15.2463 21.2463 15.75 20.625 15.75M3.375 15.75H10.875M12 14.625V13.125M12 14.625C12 15.2463 11.4963 15.75 10.875 15.75M12 14.625C12 15.2463 12.5037 15.75 13.125 15.75M10.875 15.75C11.4963 15.75 12 16.2537 12 16.875M12 18.375V16.875M12 16.875C12 16.2537 12.5037 15.75 13.125 15.75M13.125 15.75H20.625" stroke="#0F172A" stroke-width="1.5" stroke-linecap="round" stroke-linejoin="round"/>
</svg>

<svg xmlns="http://www.w3.org/2000/svg" fill="none" viewBox="0 0 24 24" stroke-width="1.5" stroke="currentColor" aria-hidden="true" data-slot="icon">
  <path stroke-linecap="round" stroke-linejoin="round" d="M3.375 19.5h17.25m-17.25 0a1.125 1.125 0 0 1-1.125-1.125M3.375 19.5h7.5c.621 0 1.125-.504 1.125-1.125m-9.75 0V5.625m0 12.75v-1.5c0-.621.504-1.125 1.125-1.125m18.375 2.625V5.625m0 12.75c0 .621-.504 1.125-1.125 1.125m1.125-1.125v-1.5c0-.621-.504-1.125-1.125-1.125m0 3.75h-7.5A1.125 1.125 0 0 1 12 18.375m9.75-12.75c0-.621-.504-1.125-1.125-1.125H3.375c-.621 0-1.125.504-1.125 1.125m19.5 0v1.5c0 .621-.504 1.125-1.125 1.125M2.25 5.625v1.5c0 .621.504 1.125 1.125 1.125m0 0h17.25m-17.25 0h7.5c.621 0 1.125.504 1.125 1.125M3.375 8.25c-.621 0-1.125.504-1.125 1.125v1.5c0 .621.504 1.125 1.125 1.125m17.25-3.75h-7.5c-.621 0-1.125.504-1.125 1.125m8.625-1.125c.621 0 1.125.504 1.125 1.125v1.5c0 .621-.504 1.125-1.125 1.125m-17.25 0h7.5m-7.5 0c-.621 0-1.125.504-1.125 1.125v1.5c0 .621.504 1.125 1.125 1.125M12 10.875v-1.5m0 1.5c0 .621-.504 1.125-1.125 1.125M12 10.875c0 .621.504 1.125 1.125 1.125m-2.25 0c.621 0 1.125.504 1.125 1.125M13.125 12h7.5m-7.5 0c-.621 0-1.125.504-1.125 1.125M20.625 12c.621 0 1.125.504 1.125 1.125v1.5c0 .621-.504 1.125-1.125 1.125m-17.25 0h7.5M12 14.625v-1.5m0 1.5c0 .621-.504 1.125-1.125 1.125M12 14.625c0 .621.504 1.125 1.125 1.125m-2.25 0c.621 0 1.125.504 1.125 1.125m0 1.5v-1.5m0 0c0-.621.504-1.125 1.125-1.125m0 0h7.5"/>
</svg>
